X:1
T:Sales, 886
T:Sales, 886
T:Francis Henry Champneys, 1875
T:Public Domain Courtesy of the Cyber Hymnal™
C:Francis Henry Champneys, 1875
Z:Public Domain
Z:Courtesy of the Cyber Hymnal™
%%score ( 1 2 ) ( 3 4 )
L:1/8
Q:1/4=112
M:4/4
K:G
V:1 treble 
V:2 treble 
V:3 bass 
V:4 bass 
V:1
 [B,D]2 | [EG]2 [FA]2 [Gc]2 B2 | [EA]2 G2 [DF]2 [FA]2 | [GB]2 [Fd]2 [G^c]2 B2 | %4
 B2 z [DB]2 [Dd][Fd] x | [GB]2 G2 A4 | G6 |] %7
V:2
 x2 | x6 (GF) | x2 (B,C) x4 | x6 (DE) | F3 (^A2 E) x2 | x2 G2 (G2 F2) | G6 |] %7
V:3
 G,2 | [E,B,]2 [D,D]2 [C,E]2 [G,D]2 | [C,C]2 [E,G,]2 [D,A,]2 [D,D]2 | [G,D]2 [B,D]2 [E,E]2 (B,^C) | %4
 [F,D]2 [F,^C]2 B,2 B,[A,=C] | D2 ([E,C][D,B,]) ([C,E]2 [D,D]2) | [G,,B,]6 |] %7
V:4
 G,2 | x8 | x8 | x6 G,2 | x4 B,2 B, x | (G,F,) x6 | x6 |] %7

